assets/img/draco-pensativo.svg

<svg width="494" height="191" viewBox="0 0 494 191" fill="none" xmlns="http://www.w3.org/2000/svg">
<path d="M247 190.49C383.414 190.49 494 166.672 494 137.292C494 107.911 383.414 84.0932 247 84.0932C110.586 84.0932 0 107.911 0 137.292C0 166.672 110.586 190.49 247 190.49Z" fill="url(#paint0_radial)"/>
<path fill-rule="evenodd" clip-rule="evenodd" d="M144.477 97.0386L147.15 94.1471C147.731 93.5186 148.312 93.1414 149.009 93.1414C149.707 93.0157 150.288 93.1414 150.636 93.6443C151.217 94.1471 151.682 94.65 152.147 95.1528C152.612 95.7814 153.077 96.2843 153.542 96.7871C154.007 97.1643 154.239 97.9186 154.007 98.5471C153.658 99.4271 152.147 101.187 150.055 103.199L144.477 97.0386Z" fill="#575757" stroke="black" stroke-width="11.8114"/>
<path fill-rule="evenodd" clip-rule="evenodd" d="M151.799 114.136L142.85 104.958C142.036 104.204 141.571 103.198 141.455 102.193C141.339 101.187 141.571 100.181 142.152 99.5527C142.85 98.7984 144.128 97.9184 144.942 97.1641C146.104 95.7812 153.658 104.33 157.145 108.353L151.799 114.136Z" fill="#575757"/>
<path fill-rule="evenodd" clip-rule="evenodd" d="M157.145 120.17C182.83 120.17 203.634 123.69 203.634 128.09C203.634 132.49 182.83 136.01 157.145 136.01C131.46 136.01 110.656 132.49 110.656 128.09C110.656 123.69 131.46 120.17 157.145 120.17Z" fill="url(#paint1_radial)"/>
<path fill-rule="evenodd" clip-rule="evenodd" d="M159.586 118.661H155.751V125.198C155.751 125.953 155.518 126.707 155.169 127.21C154.705 127.713 154.24 128.09 153.659 128.09C152.961 128.09 152.38 128.09 151.683 128.09C151.102 128.09 150.404 128.09 149.823 128.09C149.242 128.09 148.661 127.838 148.429 127.21C147.266 124.067 149.707 101.564 150.637 98.6729H155.751H159.586H163.537H168.651C169.465 101.564 172.022 124.067 170.743 127.21C170.511 127.838 170.046 128.09 169.465 128.09C168.767 128.09 168.186 128.09 167.489 128.09C166.908 128.09 166.211 128.09 165.513 128.09C165.048 128.09 164.467 127.713 164.119 127.21C163.77 126.707 163.537 125.953 163.537 125.198V118.661H159.586Z" fill="#9D3BFF" stroke="#9D3BFF" stroke-width="2.36229"/>
<path fill-rule="evenodd" clip-rule="evenodd" d="M143.315 46.6272L143.431 46.7529C147.034 44.7415 150.87 42.8558 154.821 41.0958C158.889 39.3358 162.957 40.5929 165.63 44.2386C173.417 55.0501 179.809 66.9929 184.807 80.1929C186.434 84.4672 185.271 88.8672 181.901 91.7586C171.557 100.684 160.4 107.599 148.661 112.627C144.594 114.261 140.526 113.13 137.853 109.484C129.485 97.5415 123.209 85.4729 118.676 73.5301C117.049 69.1301 118.211 64.7301 121.582 61.8386C124.836 59.0729 128.323 56.4329 131.925 53.9186L131.809 53.7929C130.763 51.4043 129.369 49.0158 128.206 49.7701C118.909 55.6786 101.243 72.3986 97.6399 68.1243C95.4316 65.7358 88.807 56.3072 86.2501 49.1415C85.0879 45.7472 92.6423 36.8215 96.4776 42.1015C100.197 47.0043 101.94 61.5872 107.054 58.4443C110.424 56.3072 114.376 53.7929 116.235 52.6615C117.979 51.5301 112.749 46.6272 114.26 45.3701C114.725 44.9929 117.746 42.6043 118.444 44.3643C118.676 44.8672 120.187 50.1472 121.93 49.0158C124.603 47.3815 129.252 43.2329 130.763 46.1243L133.088 50.2729C133.436 51.0272 133.785 51.6558 134.017 52.4101H134.134L140.991 48.0101H141.107C140.642 47.3815 140.293 46.6272 139.945 45.9986L137.737 41.8501C136.226 38.9586 141.804 36.6958 144.477 35.0615C146.221 33.9301 142.734 29.7815 142.502 29.4043C141.339 27.7701 144.826 26.1358 145.407 25.8843C147.034 25.1301 148.429 32.5472 150.172 31.4158C152.032 30.2843 155.983 27.7701 159.47 25.6329C164.584 22.4901 153.775 13.5644 151.567 7.65578C149.359 1.37007 160.284 -1.26993 162.376 1.62149C166.792 7.53007 171.092 18.4672 172.022 21.7358C173.533 27.2672 151.335 35.3129 141.921 41.2215C140.758 41.9758 142.037 44.3643 143.315 46.6272Z" fill="url(#paint2_linear)"/>
<path fill-rule="evenodd" clip-rule="evenodd" d="M159.47 64.6044C161.678 67.2444 165.281 67.8729 168.07 66.113C170.976 64.2272 172.254 60.5815 171.208 57.1873C167.024 59.073 163.073 61.4615 159.47 64.6044Z" fill="#FEFEFE"/>
<path fill-rule="evenodd" clip-rule="evenodd" d="M141.455 71.2672C141.571 72.65 141.92 74.0329 142.617 75.4157C144.942 79.69 150.056 81.1986 154.123 78.6843C158.191 76.17 159.586 70.6386 157.261 66.2386C156.796 65.3586 156.332 64.73 155.75 64.1014L141.455 71.2672Z" fill="#FEFEFE"/>
<path fill-rule="evenodd" clip-rule="evenodd" d="M174.811 97.0386L172.022 94.1471C171.557 93.5186 170.86 93.1414 170.279 93.1414C169.581 93.0157 169 93.1414 168.535 93.6443C168.071 94.1471 167.606 94.65 167.141 95.1528C166.56 95.7814 166.095 96.2843 165.63 96.7871C165.165 97.1643 165.049 97.9186 165.281 98.5471C165.63 99.4271 167.025 101.187 169.117 103.199L174.811 97.0386Z" fill="#9D3BFF" stroke="white" stroke-width="2"/>
<path fill-rule="evenodd" clip-rule="evenodd" d="M167.954 113.445L177.019 104.268C177.833 103.514 178.181 102.508 178.297 101.502C178.53 100.497 178.297 99.491 177.6 98.8625C176.903 98.1082 175.624 97.2282 174.927 96.4739C173.649 95.091 166.094 103.64 162.724 107.663L167.954 113.445Z" fill="#9D3BFF"/>
<defs>
<radialGradient id="paint0_radial" cx="0" cy="0" r="1" gradientUnits="userSpaceOnUse" gradientTransform="translate(247 137.292) rotate(89.5956) scale(39.3617 202.341)">
<stop stop-color="#828282"/>
<stop offset="1" stop-color="white" stop-opacity="0"/>
<stop offset="1" stop-color="#01F0FF" stop-opacity="0"/>
</radialGradient>
<radialGradient id="paint1_radial" cx="0" cy="0" r="1" gradientUnits="userSpaceOnUse" gradientTransform="translate(157.131 128.081) scale(46.4853 7.90707)">
<stop stop-color="#2D2D2D"/>
<stop offset="1" stop-color="#787777" stop-opacity="0"/>
</radialGradient>
<linearGradient id="paint2_linear" x1="122.805" y1="17.3646" x2="175.195" y2="103.271" gradientUnits="userSpaceOnUse">
<stop stop-color="#00C4D1"/>
<stop offset="1" stop-color="#9D3BFF"/>
</linearGradient>
</defs>
</svg>

<svg xmlns="http://www.w3.org/2000/svg" width="494" height="191" fill="none" xmlns:v="https://vecta.io/nano"><path d="M247 190.5c136.414 0 247-23.818 247-53.198s-110.586-53.2-247-53.2S0 107.91 0 137.292 110.586 190.5 247 190.5z" fill="url(#A)"/><g fill-rule="evenodd"><g fill="#575757"><path d="M144.477 97.04l2.673-2.892c.58-.628 1.162-1.006 1.86-1.006.698-.126 1.28 0 1.627.503.58.503 1.046 1.006 1.51 1.508.465.63.93 1.132 1.395 1.634.465.377.697 1.132.465 1.76-.35.88-1.86 2.64-3.952 4.652l-5.578-6.16z" stroke="#000" stroke-width="11.811"/><path d="M151.8 114.136l-8.95-9.178a4.48 4.48 0 0 1-1.395-2.765c-.116-1.006.116-2.012.697-2.64.698-.754 1.976-1.634 2.8-2.39 1.162-1.383 8.716 7.166 12.203 11.19l-5.346 5.783z"/></g><path d="M157.145 120.17c25.685 0 46.49 3.52 46.49 7.92S182.83 136 157.145 136s-46.49-3.52-46.49-7.92 20.804-7.92 46.49-7.92z" fill="url(#B)"/><path d="M159.586 118.66h-3.835v6.537c0 .755-.233 1.51-.582 2.012-.464.503-.93.88-1.5.88h-3.836c-.58 0-1.162-.252-1.394-.88-1.163-3.143 1.278-25.646 2.208-28.537h18.014c.814 2.89 3.37 25.394 2.092 28.537-.232.628-.697.88-1.278.88h-3.952c-.465 0-1.046-.377-1.394-.88s-.582-1.257-.582-2.012v-6.537h-3.95z" fill="#9d3bff" stroke="#9d3bff" stroke-width="2.362"/><path d="M143.315 46.627l.116.126c3.603-2.01 7.44-3.897 11.4-5.657 4.068-1.76 8.136-.503 10.81 3.143 7.787 10.812 14.18 22.754 19.177 35.954 1.627 4.274.464 8.674-2.906 11.566-10.344 8.925-21.5 15.84-33.24 20.868-4.067 1.634-8.135.503-10.808-3.143-8.368-11.942-14.644-24.01-19.177-35.954-1.627-4.4-.465-8.8 2.906-11.692 3.254-2.766 6.74-5.406 10.343-7.92l-.116-.126c-1.046-2.39-2.44-4.777-3.603-4.023-9.297 5.91-26.963 22.63-30.566 18.354-2.208-2.39-8.833-11.817-11.4-18.983-1.162-3.394 6.392-12.32 10.227-7.04 3.72 4.903 5.462 19.486 10.576 16.343l9.18-5.783c1.744-1.13-3.486-6.034-1.975-7.29.465-.377 3.486-2.766 4.184-1.006.232.503 1.743 5.783 3.486 4.65 2.673-1.634 7.322-5.783 8.833-2.892l2.325 4.15c.348.754.697 1.383.93 2.137h.117l6.857-4.4h.116c-.465-.63-.814-1.383-1.162-2.01l-2.208-4.15c-1.51-2.892 4.067-5.154 6.74-6.79 1.744-1.13-1.743-5.28-1.975-5.657-1.163-1.634 2.324-3.268 2.905-3.52 1.627-.754 3.022 6.663 4.765 5.532l9.298-5.783c5.114-3.143-5.695-12.068-7.903-17.977-2.208-6.286 8.717-8.926 10.81-6.034 4.416 5.91 8.716 16.846 9.646 20.114 1.51 5.53-20.687 13.577-30.1 19.486-1.163.754.116 3.143 1.394 5.406z" fill="url(#C)"/><path d="M159.47 64.604c2.208 2.64 5.8 3.27 8.6 1.5 2.906-1.886 4.184-5.532 3.138-8.926-4.184 1.886-8.135 4.274-11.738 7.417zm-18.015 6.663c.116 1.383.465 2.766 1.162 4.148 2.325 4.274 7.44 5.783 11.506 3.27s5.463-8.046 3.138-12.446a9.52 9.52 0 0 0-1.511-2.137l-14.295 7.166z" fill="#fefefe"/><g fill="#9d3bff"><path d="M174.81 97.04l-2.79-2.892c-.465-.628-1.162-1.006-1.743-1.006-.698-.126-1.28 0-1.744.503l-2.905 3.143c-.465.377-.58 1.132-.35 1.76.35.88 1.744 2.64 3.836 4.652l5.694-6.16z" stroke="#fff" stroke-width="2"/><path d="M167.954 113.445l9.065-9.177c.814-.754 1.162-1.76 1.278-2.766.233-1.005 0-2.01-.697-2.64-.697-.754-1.976-1.634-2.673-2.39-1.278-1.383-8.833 7.166-12.203 11.19l5.23 5.782z"/></g></g><defs><radialGradient id="A" cx="0" cy="0" r="1" gradientUnits="userSpaceOnUse" gradientTransform="translate(247 137.292) rotate(89.5956) scale(39.3617 202.341)"><stop stop-color="#828282"/><stop offset="1" stop-color="#fff" stop-opacity="0"/><stop offset="1" stop-color="#01f0ff" stop-opacity="0"/></radialGradient><radialGradient id="B" cx="0" cy="0" r="1" gradientUnits="userSpaceOnUse" gradientTransform="translate(157.131 128.081) scale(46.4853 7.90707)"><stop stop-color="#2d2d2d"/><stop offset="1" stop-color="#787777" stop-opacity="0"/></radialGradient><linearGradient id="C" x1="122.805" y1="17.365" x2="175.195" y2="103.271" gradientUnits="userSpaceOnUse"><stop stop-color="#00c4d1"/><stop offset="1" stop-color="#9d3bff"/></linearGradient></defs></svg>
